symbols/web/looks_6/materialsymbolssharp/looks_6_wght500grad200_20px.svg

<svg xmlns="http://www.w3.org/2000/svg" height="20" width="20"><path d="M9.438 8.833v-1h2.583V5.542H7.167v8.916h5.666V8.833Zm0 2.292h1.124v1.042H9.438Zm-7.563 7V1.875h16.25v16.25Zm2.437-2.437h11.376V4.312H4.312Zm0 0V4.312v11.376Z"/></svg>

<svg xmlns="http://www.w3.org/2000/svg" height="20" width="20"><path d="M9.438 8.833V7.833H12.021V5.542H7.167V14.458H12.833V8.833ZM9.438 11.125H10.562V12.167H9.438ZM1.875 18.125V1.875H18.125V18.125ZM4.312 15.688H15.688V4.312H4.312ZM4.312 15.688V4.312V15.688Z"/></svg>
